icons/modern/check-box-with-check.svg

<svg width="32" height="32" viewBox="0 0 32 32" fill="none" xmlns="http://www.w3.org/2000/svg">
<g filter="url(#filter0_ii_18590_2006)">
<rect x="1.87933" y="1.6875" width="27.875" height="27.875" rx="3.6" fill="url(#paint0_linear_18590_2006)"/>
<rect x="1.87933" y="1.6875" width="27.875" height="27.875" rx="3.6" fill="url(#paint1_radial_18590_2006)"/>
</g>
<g filter="url(#filter1_f_18590_2006)">
<path d="M28.0668 4.1875V27.0625" stroke="url(#paint2_linear_18590_2006)" stroke-width="1.5" stroke-linecap="round"/>
</g>
<g filter="url(#filter2_f_18590_2006)">
<path d="M5.3432 3.5H27.1245" stroke="url(#paint3_linear_18590_2006)" stroke-width="1.5" stroke-linecap="round"/>
</g>
<g filter="url(#filter3_f_18590_2006)">
<path d="M13.0588 22.625C12.6757 22.625 12.2925 22.4816 11.9998 22.1942L6.25539 16.5528C5.67065 15.9785 5.67065 15.047 6.25539 14.4727C6.84013 13.8985 7.78869 13.8985 8.37343 14.4727L13.0588 19.0741L23.2602 9.05569C23.845 8.48144 24.7935 8.48144 25.3783 9.05569C25.963 9.62994 25.963 10.5615 25.3783 11.1357L14.1178 22.1942C13.8258 22.4816 13.442 22.625 13.0588 22.625Z" fill="#4A4352"/>
</g>
<g filter="url(#filter4_ii_18590_2006)">
<path d="M13.0588 22.625C12.6757 22.625 12.2925 22.4816 11.9998 22.1942L6.25539 16.5528C5.67065 15.9785 5.67065 15.047 6.25539 14.4727C6.84013 13.8985 7.78869 13.8985 8.37343 14.4727L12.9888 19.0053C13.0277 19.0435 13.09 19.0435 13.1289 19.0053L23.2602 9.05569C23.845 8.48144 24.7935 8.48144 25.3783 9.05569C25.963 9.62994 25.963 10.5615 25.3783 11.1357L14.1178 22.1942C13.8258 22.4816 13.442 22.625 13.0588 22.625Z" fill="#FCF2FF"/>
</g>
<defs>
<filter id="filter0_ii_18590_2006" x="1.87933" y="0.6875" width="29.875" height="28.875" filterUnits="userSpaceOnUse" color-interpolation-filters="sRGB">
<feFlood flood-opacity="0" result="BackgroundImageFix"/>
<feBlend mode="normal" in="SourceGraphic" in2="BackgroundImageFix" result="shape"/>
<feColorMatrix in="SourceAlpha" type="matrix" values="0 0 0 0 0 0 0 0 0 0 0 0 0 0 0 0 0 0 127 0" result="hardAlpha"/>
<feOffset dx="2" dy="-1"/>
<feGaussianBlur stdDeviation="1.5"/>
<feComposite in2="hardAlpha" operator="arithmetic" k2="-1" k3="1"/>
<feColorMatrix type="matrix" values="0 0 0 0 0.156863 0 0 0 0 0.145098 0 0 0 0 0.176471 0 0 0 1 0"/>
<feBlend mode="normal" in2="shape" result="effect1_innerShadow_18590_2006"/>
<feColorMatrix in="SourceAlpha" type="matrix" values="0 0 0 0 0 0 0 0 0 0 0 0 0 0 0 0 0 0 127 0" result="hardAlpha"/>
<feOffset dy="-1"/>
<feGaussianBlur stdDeviation="1.5"/>
<feComposite in2="hardAlpha" operator="arithmetic" k2="-1" k3="1"/>
<feColorMatrix type="matrix" values="0 0 0 0 0.32549 0 0 0 0 0.219608 0 0 0 0 0.419608 0 0 0 1 0"/>
<feBlend mode="normal" in2="effect1_innerShadow_18590_2006" result="effect2_innerShadow_18590_2006"/>
</filter>
<filter id="filter1_f_18590_2006" x="25.3168" y="1.4375" width="5.5" height="28.375" filterUnits="userSpaceOnUse" color-interpolation-filters="sRGB">
<feFlood flood-opacity="0" result="BackgroundImageFix"/>
<feBlend mode="normal" in="SourceGraphic" in2="BackgroundImageFix" result="shape"/>
<feGaussianBlur stdDeviation="1" result="effect1_foregroundBlur_18590_2006"/>
</filter>
<filter id="filter2_f_18590_2006" x="2.5932" y="0.75" width="27.2812" height="5.5" filterUnits="userSpaceOnUse" color-interpolation-filters="sRGB">
<feFlood flood-opacity="0" result="BackgroundImageFix"/>
<feBlend mode="normal" in="SourceGraphic" in2="BackgroundImageFix" result="shape"/>
<feGaussianBlur stdDeviation="1" result="effect1_foregroundBlur_18590_2006"/>
</filter>
<filter id="filter3_f_18590_2006" x="4.81683" y="7.625" width="22" height="16" filterUnits="userSpaceOnUse" color-interpolation-filters="sRGB">
<feFlood flood-opacity="0" result="BackgroundImageFix"/>
<feBlend mode="normal" in="SourceGraphic" in2="BackgroundImageFix" result="shape"/>
<feGaussianBlur stdDeviation="0.5" result="effect1_foregroundBlur_18590_2006"/>
</filter>
<filter id="filter4_ii_18590_2006" x="5.41683" y="8.225" width="20.8" height="14.8" filterUnits="userSpaceOnUse" color-interpolation-filters="sRGB">
<feFlood flood-opacity="0" result="BackgroundImageFix"/>
<feBlend mode="normal" in="SourceGraphic" in2="BackgroundImageFix" result="shape"/>
<feColorMatrix in="SourceAlpha" type="matrix" values="0 0 0 0 0 0 0 0 0 0 0 0 0 0 0 0 0 0 127 0" result="hardAlpha"/>
<feOffset dx="-0.4" dy="0.4"/>
<feGaussianBlur stdDeviation="0.375"/>
<feComposite in2="hardAlpha" operator="arithmetic" k2="-1" k3="1"/>
<feColorMatrix type="matrix" values="0 0 0 0 0.913725 0 0 0 0 0.886275 0 0 0 0 0.968627 0 0 0 1 0"/>
<feBlend mode="normal" in2="shape" result="effect1_innerShadow_18590_2006"/>
<feColorMatrix in="SourceAlpha" type="matrix" values="0 0 0 0 0 0 0 0 0 0 0 0 0 0 0 0 0 0 127 0" result="hardAlpha"/>
<feOffset dx="0.4" dy="-0.4"/>
<feGaussianBlur stdDeviation="0.2"/>
<feComposite in2="hardAlpha" operator="arithmetic" k2="-1" k3="1"/>
<feColorMatrix type="matrix" values="0 0 0 0 1 0 0 0 0 0.988235 0 0 0 0 1 0 0 0 1 0"/>
<feBlend mode="normal" in2="effect1_innerShadow_18590_2006" result="effect2_innerShadow_18590_2006"/>
</filter>
<linearGradient id="paint0_linear_18590_2006" x1="15.8168" y1="5.26201" x2="15.8168" y2="28.8497" gradientUnits="userSpaceOnUse">
<stop stop-color="#614F74"/>
<stop offset="1" stop-color="#484051"/>
</linearGradient>
<radialGradient id="paint1_radial_18590_2006" cx="0" cy="0" r="1" gradientUnits="userSpaceOnUse" gradientTransform="translate(27.5356 3.78125) rotate(136.771) scale(2.14444 2.50466)">
<stop offset="0.32856" stop-color="#837296"/>
<stop offset="1" stop-color="#837296" stop-opacity="0"/>
</radialGradient>
<linearGradient id="paint2_linear_18590_2006" x1="28.5668" y1="4.1875" x2="28.5668" y2="27.0625" gradientUnits="userSpaceOnUse">
<stop stop-color="#746486"/>
<stop offset="1" stop-color="#56535B"/>
</linearGradient>
<linearGradient id="paint3_linear_18590_2006" x1="28.2807" y1="3.75002" x2="2.74945" y2="3.75002" gradientUnits="userSpaceOnUse">
<stop stop-color="#705D84"/>
<stop offset="1" stop-color="#6A577E"/>
</linearGradient>
</defs>
</svg>

<svg width="32" height="32" fill="none" xmlns="http://www.w3.org/2000/svg"><g filter="url(#a)"><rect x="1.879" y="1.688" width="27.875" height="27.875" rx="3.6" fill="url(#b)"/><rect x="1.879" y="1.688" width="27.875" height="27.875" rx="3.6" fill="url(#c)"/></g><g filter="url(#d)"><path d="M28.067 4.188v22.875" stroke="url(#e)" stroke-width="1.5" stroke-linecap="round"/></g><g filter="url(#f)"><path d="M5.343 3.5h21.782" stroke="url(#g)" stroke-width="1.5" stroke-linecap="round"/></g><g filter="url(#h)"><path d="M13.059 22.625c-.383 0-.766-.143-1.06-.43l-5.744-5.642a1.453 1.453 0 0 1 0-2.08 1.517 1.517 0 0 1 2.118 0l4.686 4.601L23.26 9.056a1.517 1.517 0 0 1 2.118 0 1.452 1.452 0 0 1 0 2.08l-11.26 11.058c-.292.288-.676.431-1.06.431Z" fill="#4A4352"/></g><g filter="url(#i)"><path d="M13.059 22.625c-.383 0-.766-.143-1.06-.43l-5.744-5.642a1.453 1.453 0 0 1 0-2.08 1.517 1.517 0 0 1 2.118 0l4.616 4.532a.1.1 0 0 0 .14 0l10.131-9.95a1.517 1.517 0 0 1 2.118 0 1.452 1.452 0 0 1 0 2.08l-11.26 11.06c-.292.287-.676.43-1.06.43Z" fill="#FCF2FF"/></g><defs><filter id="a" x="1.879" y=".688" width="29.875" height="28.875" filterUnits="userSpaceOnUse" color-interpolation-filters="sRGB"><feFlood flood-opacity="0" result="BackgroundImageFix"/><feBlend in="SourceGraphic" in2="BackgroundImageFix" result="shape"/><feColorMatrix in="SourceAlpha" values="0 0 0 0 0 0 0 0 0 0 0 0 0 0 0 0 0 0 127 0" result="hardAlpha"/><feOffset dx="2" dy="-1"/><feGaussianBlur stdDeviation="1.5"/><feComposite in2="hardAlpha" operator="arithmetic" k2="-1" k3="1"/><feColorMatrix values="0 0 0 0 0.156863 0 0 0 0 0.145098 0 0 0 0 0.176471 0 0 0 1 0"/><feBlend in2="shape" result="effect1_innerShadow_18590_2006"/><feColorMatrix in="SourceAlpha" values="0 0 0 0 0 0 0 0 0 0 0 0 0 0 0 0 0 0 127 0" result="hardAlpha"/><feOffset dy="-1"/><feGaussianBlur stdDeviation="1.5"/><feComposite in2="hardAlpha" operator="arithmetic" k2="-1" k3="1"/><feColorMatrix values="0 0 0 0 0.32549 0 0 0 0 0.219608 0 0 0 0 0.419608 0 0 0 1 0"/><feBlend in2="effect1_innerShadow_18590_2006" result="effect2_innerShadow_18590_2006"/></filter><filter id="d" x="25.317" y="1.438" width="5.5" height="28.375" filterUnits="userSpaceOnUse" color-interpolation-filters="sRGB"><feFlood flood-opacity="0" result="BackgroundImageFix"/><feBlend in="SourceGraphic" in2="BackgroundImageFix" result="shape"/><feGaussianBlur stdDeviation="1" result="effect1_foregroundBlur_18590_2006"/></filter><filter id="f" x="2.593" y=".75" width="27.281" height="5.5" filterUnits="userSpaceOnUse" color-interpolation-filters="sRGB"><feFlood flood-opacity="0" result="BackgroundImageFix"/><feBlend in="SourceGraphic" in2="BackgroundImageFix" result="shape"/><feGaussianBlur stdDeviation="1" result="effect1_foregroundBlur_18590_2006"/></filter><filter id="h" x="4.817" y="7.625" width="22" height="16" filterUnits="userSpaceOnUse" color-interpolation-filters="sRGB"><feFlood flood-opacity="0" result="BackgroundImageFix"/><feBlend in="SourceGraphic" in2="BackgroundImageFix" result="shape"/><feGaussianBlur stdDeviation=".5" result="effect1_foregroundBlur_18590_2006"/></filter><filter id="i" x="5.417" y="8.225" width="20.8" height="14.8" filterUnits="userSpaceOnUse" color-interpolation-filters="sRGB"><feFlood flood-opacity="0" result="BackgroundImageFix"/><feBlend in="SourceGraphic" in2="BackgroundImageFix" result="shape"/><feColorMatrix in="SourceAlpha" values="0 0 0 0 0 0 0 0 0 0 0 0 0 0 0 0 0 0 127 0" result="hardAlpha"/><feOffset dx="-.4" dy=".4"/><feGaussianBlur stdDeviation=".375"/><feComposite in2="hardAlpha" operator="arithmetic" k2="-1" k3="1"/><feColorMatrix values="0 0 0 0 0.913725 0 0 0 0 0.886275 0 0 0 0 0.968627 0 0 0 1 0"/><feBlend in2="shape" result="effect1_innerShadow_18590_2006"/><feColorMatrix in="SourceAlpha" values="0 0 0 0 0 0 0 0 0 0 0 0 0 0 0 0 0 0 127 0" result="hardAlpha"/><feOffset dx=".4" dy="-.4"/><feGaussianBlur stdDeviation=".2"/><feComposite in2="hardAlpha" operator="arithmetic" k2="-1" k3="1"/><feColorMatrix values="0 0 0 0 1 0 0 0 0 0.988235 0 0 0 0 1 0 0 0 1 0"/><feBlend in2="effect1_innerShadow_18590_2006" result="effect2_innerShadow_18590_2006"/></filter><linearGradient id="b" x1="15.817" y1="5.262" x2="15.817" y2="28.85" gradientUnits="userSpaceOnUse"><stop stop-color="#614F74"/><stop offset="1" stop-color="#484051"/></linearGradient><linearGradient id="e" x1="28.567" y1="4.188" x2="28.567" y2="27.063" gradientUnits="userSpaceOnUse"><stop stop-color="#746486"/><stop offset="1" stop-color="#56535B"/></linearGradient><linearGradient id="g" x1="28.281" y1="3.75" x2="2.749" y2="3.75" gradientUnits="userSpaceOnUse"><stop stop-color="#705D84"/><stop offset="1" stop-color="#6A577E"/></linearGradient><radialGradient id="c" cx="0" cy="0" r="1" gradientUnits="userSpaceOnUse" gradientTransform="matrix(-1.56249 1.46876 -1.71548 -1.82495 27.536 3.781)"><stop offset=".329" stop-color="#837296"/><stop offset="1" stop-color="#837296" stop-opacity="0"/></radialGradient></defs></svg>
